src/assets/doodle-logo.svg

<svg width="48" height="48" viewBox="0 0 48 48" fill="none" xmlns="http://www.w3.org/2000/svg">
<path d="M33.3323 14.625C33.2241 14.625 33.1159 14.625 33.0095 14.6306C33.0058 14.6306 33.0039 14.6306 33.0002 14.6306C32.9909 14.6306 32.9815 14.6306 32.9722 14.6306H32.9461C32.9461 14.6306 32.9274 14.6306 32.9181 14.6306C32.9088 14.6306 32.9013 14.6306 32.892 14.6306C32.8826 14.6306 32.8752 14.6306 32.8658 14.6306C32.8547 14.6306 32.8435 14.6306 32.8323 14.6306C32.8267 14.6306 32.8192 14.6306 32.8136 14.6306C32.8005 14.6306 32.7856 14.6306 32.7726 14.6306C32.7688 14.6306 32.7651 14.6306 32.7614 14.6306C32.7483 14.6306 32.7352 14.6306 32.7203 14.6306H32.7035C32.6681 14.6306 32.6307 14.6306 32.5953 14.6306C32.5897 14.6306 32.5841 14.6306 32.5785 14.6306C32.5654 14.6306 32.5542 14.6306 32.5412 14.6306C32.5356 14.6306 32.53 14.6306 32.5263 14.6306H32.4852C32.4852 14.6306 32.4759 14.6306 32.4703 14.6306C32.4591 14.6306 32.446 14.6306 32.4348 14.6306C32.4274 14.6306 32.418 14.6306 32.4106 14.6306C32.3994 14.6306 32.39 14.6306 32.3788 14.6306C32.3732 14.6306 32.3658 14.6306 32.3602 14.6306C32.3471 14.6306 32.3359 14.6306 32.3229 14.6306C32.3173 14.6306 32.3098 14.6306 32.3042 14.6306C32.293 14.6306 32.2818 14.6306 32.2706 14.6306C32.2632 14.6306 32.2557 14.6306 32.2482 14.6306C32.237 14.6306 32.2258 14.6306 32.2165 14.6306C32.209 14.6306 32.2016 14.6306 32.1941 14.6306C32.1829 14.6306 32.1717 14.6306 32.1624 14.6325C32.1549 14.6325 32.1475 14.6325 32.14 14.6325C32.1269 14.6325 32.1158 14.6325 32.1027 14.6343C32.0971 14.6343 32.0915 14.6343 32.0878 14.6343C32.0747 14.6343 32.0616 14.6362 32.0486 14.638C32.043 14.638 32.0374 14.638 32.0299 14.638C32.0187 14.638 32.0075 14.6399 31.9963 14.6399C31.9889 14.6399 31.9814 14.6399 31.9739 14.6418C31.9627 14.6418 31.9516 14.6418 31.9404 14.6455C31.9329 14.6455 31.9273 14.6455 31.9198 14.6455C31.8825 14.6492 31.8471 14.6529 31.8097 14.6567C31.7519 14.6623 31.6959 14.6697 31.6381 14.6753C31.6343 14.6753 31.6306 14.6753 31.6269 14.6753C31.6157 14.6753 31.6026 14.679 31.5914 14.679C31.5914 14.679 31.5896 14.679 31.5877 14.679C31.5746 14.679 31.5616 14.6828 31.5485 14.6846C31.5467 14.6846 31.5448 14.6846 31.5429 14.6846C31.5317 14.6846 31.5205 14.6883 31.5093 14.6883C31.5037 14.6883 31.5 14.6883 31.4944 14.6902C31.4851 14.6902 31.4757 14.6939 31.4646 14.6939C31.4608 14.6939 31.4571 14.6939 31.4534 14.6939C31.4403 14.6939 31.4272 14.6977 31.416 14.6995C31.403 14.7014 31.3899 14.7032 31.375 14.7051H31.3713C31.2127 14.7293 31.0522 14.7591 30.8936 14.7927C30.8656 14.7983 30.8376 14.8057 30.8078 14.8113C30.8078 14.8113 30.8078 14.8113 30.8059 14.8113C30.2704 14.9324 29.7386 15.1075 29.2161 15.3423L29.2087 15.346C29.1546 15.3702 29.1005 15.3944 29.0463 15.4205C29.0239 15.4317 29.0034 15.4429 28.981 15.454C28.9605 15.4634 28.9418 15.4745 28.9213 15.4839C28.8952 15.4969 28.8709 15.5099 28.8467 15.523C28.828 15.5323 28.8094 15.5435 28.7888 15.5528C28.7795 15.5584 28.7702 15.5621 28.7609 15.5677C28.7105 15.5956 28.6601 15.6236 28.6097 15.6515C28.5855 15.6646 28.5612 15.6795 28.5369 15.6925C28.466 15.7316 28.397 15.7726 28.328 15.8136C28.3037 15.8285 28.2795 15.8434 28.2552 15.8565C26.658 16.8215 25.2903 18.1424 24.0084 19.5899C23.7677 19.8303 23.527 20.0743 23.2882 20.3184C21.8738 16.9854 18.5488 14.625 14.6733 14.625C9.52151 14.625 5.34375 18.7963 5.34375 23.9401C5.34375 29.0839 9.52151 33.2552 14.6733 33.2552C14.7815 33.2552 14.8897 33.2552 14.9961 33.2496C14.9998 33.2496 15.0017 33.2496 15.0054 33.2496C15.0147 33.2496 15.0241 33.2496 15.0334 33.2496H15.0595C15.0595 33.2496 15.0782 33.2496 15.0875 33.2496C15.0968 33.2496 15.1043 33.2496 15.1136 33.2496C15.123 33.2496 15.1304 33.2496 15.1398 33.2496C15.1509 33.2496 15.1621 33.2496 15.1733 33.2496C15.1789 33.2496 15.1864 33.2496 15.192 33.2496C15.2051 33.2496 15.22 33.2496 15.233 33.2496C15.2368 33.2496 15.2405 33.2496 15.2442 33.2496C15.2573 33.2496 15.2704 33.2496 15.2853 33.2496H15.3021C15.3375 33.2496 15.3749 33.2496 15.4103 33.2496C15.4159 33.2496 15.4215 33.2496 15.4271 33.2496C15.4402 33.2496 15.4514 33.2496 15.4644 33.2496C15.47 33.2496 15.4756 33.2496 15.4793 33.2496C15.4924 33.2496 15.5073 33.2496 15.5204 33.2496C15.526 33.2496 15.5297 33.2496 15.5353 33.2496C15.5465 33.2496 15.5596 33.2496 15.5708 33.2496C15.5782 33.2496 15.5876 33.2496 15.595 33.2496C15.6062 33.2496 15.6156 33.2496 15.6268 33.2496C15.6323 33.2496 15.6398 33.2496 15.6454 33.2496C15.6585 33.2496 15.6697 33.2496 15.6827 33.2496C15.6883 33.2496 15.6958 33.2496 15.7014 33.2496C15.7126 33.2496 15.7238 33.2496 15.735 33.2496C15.7424 33.2496 15.7499 33.2496 15.7574 33.2496C15.7686 33.2496 15.7798 33.2496 15.7891 33.2496C15.7965 33.2496 15.804 33.2496 15.8115 33.2496C15.8227 33.2496 15.8339 33.2496 15.8432 33.2477C15.8507 33.2477 15.8581 33.2477 15.8656 33.2477C15.8786 33.2477 15.8898 33.2477 15.9029 33.2459C15.9085 33.2459 15.9141 33.2459 15.9178 33.2459C15.9309 33.2459 15.944 33.244 15.957 33.2421C15.9626 33.2421 15.9682 33.2421 15.9757 33.2421C15.9869 33.2421 15.9981 33.2403 16.0093 33.2403C16.0167 33.2403 16.0242 33.2403 16.0317 33.2384C16.0428 33.2384 16.054 33.2384 16.0652 33.2347C16.0727 33.2347 16.0783 33.2347 16.0858 33.2347C16.1231 33.2309 16.1585 33.2272 16.1959 33.2235C16.2537 33.2179 16.3097 33.2105 16.3675 33.2049C16.3712 33.2049 16.375 33.2049 16.3787 33.2049C16.3899 33.2049 16.403 33.2011 16.4142 33.2011C16.4142 33.2011 16.416 33.2011 16.4179 33.2011L16.4571 33.1956C16.4571 33.1956 16.4608 33.1956 16.4627 33.1956C16.4739 33.1956 16.4851 33.1918 16.4963 33.1918C16.5019 33.1918 16.5056 33.1918 16.5112 33.19C16.5205 33.19 16.5298 33.1862 16.541 33.1862C16.5448 33.1862 16.5485 33.1862 16.5522 33.1862C16.5653 33.1862 16.5784 33.1825 16.5896 33.1806C16.6026 33.1788 16.6157 33.1769 16.6306 33.1751C16.6306 33.1751 16.6325 33.1751 16.6343 33.1751C16.7929 33.1508 16.9534 33.121 17.112 33.0875C17.14 33.0819 17.1699 33.0745 17.1978 33.0689C17.1978 33.0689 17.1978 33.0689 17.1997 33.0689C17.7352 32.9478 18.267 32.7726 18.7895 32.5379L18.7969 32.5342C18.851 32.51 18.9051 32.4857 18.9593 32.4597C18.9816 32.4485 19.0022 32.4373 19.0246 32.4261C19.0451 32.4168 19.0637 32.4056 19.0843 32.3963C19.1104 32.3833 19.1347 32.3702 19.1589 32.3572C19.1776 32.3479 19.1962 32.3367 19.2168 32.3274C19.2261 32.3218 19.2354 32.3181 19.2447 32.3125C19.2951 32.2845 19.3455 32.2566 19.3959 32.2286C19.4201 32.2156 19.4444 32.2007 19.4686 32.1877C19.5396 32.1485 19.6086 32.1075 19.6776 32.0666C19.7019 32.0517 19.7261 32.0368 19.7504 32.0237C21.3476 31.0587 22.7153 29.7378 23.9972 28.2902C24.2379 28.0499 24.4786 27.8058 24.7174 27.5618C26.1262 30.9208 29.4512 33.2812 33.3267 33.2812C38.4785 33.2812 42.6562 29.11 42.6562 23.9662C42.6562 18.8224 38.4841 14.625 33.3323 14.625ZM20.006 23.7463C20.006 23.7463 20.0004 23.7538 19.9967 23.7556L19.5563 24.2028C19.3474 24.4133 19.1384 24.6219 18.9313 24.8269C18.8846 24.8716 18.8398 24.9163 18.7932 24.9629C18.2763 25.4678 17.7669 25.9466 17.2594 26.39C17.2053 26.4365 17.1531 26.4831 17.099 26.5278C17.0822 26.5427 17.0654 26.5558 17.0486 26.5707C17.0113 26.6023 16.9721 26.6359 16.9348 26.6675C16.9012 26.6955 16.8694 26.7216 16.8377 26.7495C16.8172 26.7663 16.7967 26.7849 16.7743 26.8017C16.6717 26.8855 16.5709 26.9693 16.4683 27.0513C16.4645 27.055 16.4608 27.0569 16.4571 27.0606C16.2537 27.2227 16.0522 27.3773 15.8488 27.5245C15.4756 27.7947 15.1043 28.0406 14.733 28.253C14.7013 28.2716 14.6695 28.2884 14.6378 28.307C14.6341 28.3089 14.6285 28.3126 14.6248 28.3144C14.5445 28.3592 14.4662 28.402 14.3859 28.443C14.3822 28.4449 14.3785 28.4467 14.3747 28.4486C14.3449 28.4654 14.3132 28.4803 14.2833 28.4952C14.2087 28.5324 14.134 28.5697 14.0613 28.6032C14.0277 28.6181 13.9941 28.6349 13.9605 28.6498C13.9418 28.6572 13.9232 28.6666 13.9045 28.674C13.7758 28.7318 13.647 28.7839 13.5183 28.8324H13.5145C13.4903 28.8417 13.4642 28.851 13.4399 28.8603C13.4399 28.8603 13.438 28.8603 13.4362 28.8603C13.4194 28.8659 13.4045 28.8715 13.3877 28.8771C13.3877 28.8771 13.3858 28.8771 13.3839 28.8771C13.3503 28.8883 13.3186 28.8994 13.285 28.9106C13.2813 28.9106 13.2794 28.9125 13.2757 28.9143C13.2533 28.9218 13.2291 28.9292 13.2067 28.9367C13.1787 28.946 13.1488 28.9553 13.1208 28.9646C13.1059 28.9702 13.0891 28.974 13.0742 28.9777C13.063 28.9814 13.0518 28.9833 13.0425 28.987C13.0275 28.9907 13.0108 28.9963 12.9958 29C12.9865 29.0019 12.9772 29.0056 12.966 29.0075C12.9492 29.0112 12.9343 29.0168 12.9175 29.0205C12.9137 29.0205 12.9119 29.0205 12.9081 29.0224C12.854 29.0373 12.798 29.0503 12.7439 29.0634C12.7402 29.0634 12.7346 29.0652 12.7309 29.0671C12.7159 29.0708 12.701 29.0746 12.6861 29.0764C12.6749 29.0783 12.6637 29.082 12.6525 29.0839C12.6376 29.0876 12.6208 29.0913 12.6059 29.0932C12.4622 29.123 12.3185 29.1472 12.1748 29.164C12.1524 29.1677 12.1282 29.1696 12.1058 29.1714C12.0927 29.1714 12.0797 29.1733 12.0666 29.1752C12.0535 29.1752 12.0386 29.177 12.0256 29.1789C12.0218 29.1789 12.0162 29.1789 12.0125 29.1789C11.9752 29.1826 11.9379 29.1845 11.8987 29.1882C11.8968 29.1882 11.8931 29.1882 11.8912 29.1882C11.8781 29.1882 11.8632 29.1882 11.8502 29.1901C11.6113 29.2031 11.3706 29.1994 11.1281 29.1752C8.7229 28.8883 7.47461 27.1631 7.47461 23.9848C7.47461 19.4987 10.2604 16.2421 14.7535 16.2421C18.4032 16.2421 21.1909 18.3548 22.1089 21.5517C21.4036 22.2895 20.7039 23.0272 20.006 23.737V23.7463ZM33.2521 31.6288C29.6024 31.6288 26.8147 29.5161 25.8967 26.3192C26.602 25.5814 27.3017 24.8436 27.9996 24.1338C28.0033 24.1301 28.0052 24.1264 28.0089 24.1245L28.4493 23.6774C28.6582 23.4669 28.8672 23.2582 29.0743 23.0533C29.121 23.0086 29.1658 22.9639 29.2124 22.9173C29.7293 22.4124 30.2387 21.9336 30.7462 21.4902C30.8003 21.4436 30.8525 21.3971 30.9066 21.3524C30.9234 21.3374 30.9402 21.3244 30.957 21.3095C30.9943 21.2778 31.0335 21.2443 31.0708 21.2126C31.1026 21.1847 31.1362 21.1586 31.1679 21.1307C31.1884 21.1139 31.2089 21.0953 31.2313 21.0785C31.3339 20.9947 31.4347 20.9108 31.5373 20.8288C31.5411 20.8251 31.5448 20.8233 31.5485 20.8195C31.7519 20.6574 31.9534 20.5028 32.1568 20.3556C32.53 20.0855 32.9013 19.8396 33.2726 19.6272C33.3043 19.6086 33.3361 19.5918 33.3678 19.5732C33.3715 19.5713 33.3771 19.5676 33.3808 19.5657C33.4611 19.521 33.5394 19.4782 33.6197 19.4372C33.6234 19.4353 33.6271 19.4334 33.6309 19.4316C33.6607 19.4148 33.6924 19.3999 33.7223 19.385C33.7969 19.3477 33.8697 19.3105 33.9443 19.277C33.9779 19.262 34.0115 19.2453 34.0451 19.2304C34.0638 19.2229 34.0824 19.2136 34.1011 19.2062C34.2298 19.1484 34.3586 19.0962 34.4873 19.0478H34.4911C34.5153 19.0385 34.5414 19.0292 34.5657 19.0199C34.5657 19.0199 34.5676 19.0199 34.5694 19.0199C34.5862 19.0143 34.6011 19.0087 34.6179 19.0031C34.6179 19.0031 34.6198 19.0031 34.6217 19.0031C34.6552 18.9919 34.687 18.9807 34.7206 18.9696C34.7243 18.9696 34.7262 18.9677 34.7299 18.9658C34.7523 18.9584 34.7765 18.9509 34.7989 18.9435C34.8269 18.9342 34.8568 18.9248 34.8848 18.9155C34.8997 18.9099 34.9165 18.9062 34.9314 18.9025C34.9426 18.8988 34.9538 18.8969 34.9631 18.8932C34.9781 18.8894 34.9948 18.8839 35.0098 18.8801C35.0191 18.8783 35.0284 18.8745 35.0396 18.8727C35.0564 18.869 35.0713 18.8634 35.0881 18.8596C35.0919 18.8596 35.0937 18.8596 35.0975 18.8578C35.1516 18.8429 35.2076 18.8298 35.2617 18.8168C35.2654 18.8168 35.271 18.8149 35.2747 18.8131C35.2897 18.8093 35.3046 18.8056 35.3195 18.8037C35.3307 18.8019 35.3419 18.7982 35.3531 18.7963C35.368 18.7926 35.3848 18.7888 35.3997 18.787C35.5434 18.7572 35.6871 18.733 35.8308 18.7162C35.8532 18.7125 35.8774 18.7106 35.8998 18.7087C35.9129 18.7087 35.9259 18.7069 35.939 18.705C35.9521 18.705 35.967 18.7031 35.98 18.7013C35.9838 18.7013 35.9894 18.7013 35.9931 18.7013C36.0304 18.6976 36.0677 18.6957 36.1069 18.692C36.1088 18.692 36.1125 18.692 36.1144 18.692C36.1274 18.692 36.1424 18.692 36.1554 18.6901C36.3943 18.6771 36.635 18.6808 36.8775 18.705C39.2827 18.9919 40.531 20.7171 40.531 23.8954C40.531 28.3815 37.7452 31.6381 33.2521 31.6381V31.6288Z" fill="black"/>
</svg>

<svg xmlns="http://www.w3.org/2000/svg" width="48" height="48" fill="none" viewBox="0 0 48 48"><path fill="#000" d="M33.332 14.625q-.163-.002-.322.006h-.816q-.017 0-.032.002h-.022l-.037.001h-.015q-.02 0-.04.004h-.018l-.034.002q-.011 0-.022.002-.016-.001-.034.004h-.02l-.11.01-.172.02h-.011l-.036.003h-.003q-.02.001-.04.006h-.005l-.034.003q-.007 0-.015.002-.013.002-.03.004h-.01q-.021.002-.038.005l-.041.006h-.004q-.239.036-.477.088-.041.009-.086.018h-.002a8.4 8.4 0 0 0-1.59.531l-.007.004q-.08.035-.163.075-.032.016-.065.033l-.06.03-.074.039-.058.03-.028.015-.151.084q-.037.02-.073.04-.106.06-.209.122l-.073.043c-1.597.965-2.965 2.285-4.247 3.733q-.36.361-.72.728a9.37 9.37 0 0 0-8.615-5.693c-5.151 0-9.33 4.171-9.33 9.315s4.179 9.315 9.33 9.315q.163.001.323-.005h.816q.016 0 .031-.002h.023q.018 0 .037-.002h.015l.039-.004h.019l.033-.002q.012 0 .023-.002.016 0 .033-.003h.02l.11-.011.172-.02h.012l.035-.003h.004l.04-.005h.005q.016-.002.033-.004.008 0 .015-.002c.01 0 .019-.004.03-.004h.011q.02-.002.038-.005l.04-.006h.004a9 9 0 0 0 .478-.087l.086-.02h.002a8.4 8.4 0 0 0 1.59-.53l.007-.004q.081-.035.162-.074l.066-.034.06-.03.074-.039.058-.03.028-.014.15-.084.074-.041.209-.121q.036-.023.072-.043c1.598-.965 2.965-2.286 4.247-3.734q.361-.361.72-.728a9.33 9.33 0 0 0 8.61 5.72c5.151 0 9.33-4.172 9.33-9.316s-4.173-9.341-9.325-9.341m-13.326 9.121s-.006.008-.01.01l-.44.447a99 99 0 0 1-.763.76c-.517.505-1.026.984-1.534 1.427q-.08.07-.16.138l-.05.043-.114.096-.097.082q-.03.027-.064.053l-.306.25-.01.009q-.305.243-.61.463c-.372.27-.744.517-1.115.729q-.048.027-.095.054l-.013.007q-.12.068-.24.129l-.01.006-.092.046q-.112.057-.222.108l-.1.047q-.03.012-.056.024-.194.087-.387.158h-.004l-.074.028h-.004l-.048.017h-.004l-.099.034q-.005 0-.01.003l-.068.023-.086.028-.047.013q-.017.004-.031.009-.024.007-.047.013l-.03.008q-.025.006-.048.012-.005 0-.01.002-.082.022-.164.041l-.013.004q-.022.007-.045.01-.016.003-.034.007l-.046.01q-.216.044-.431.07-.035.006-.07.007-.018 0-.038.004l-.041.004h-.014l-.113.01h-.008l-.04.001q-.36.021-.723-.015c-2.405-.287-3.653-2.012-3.653-5.19 0-4.486 2.785-7.743 7.279-7.743 3.65 0 6.437 2.113 7.355 5.31-.705.738-1.405 1.475-2.103 2.185zm13.246 7.883c-3.65 0-6.437-2.113-7.355-5.31.705-.738 1.405-1.475 2.103-2.185q.004-.007.009-.01l.44-.447a97 97 0 0 1 .763-.76 38 38 0 0 1 1.534-1.427l.16-.138.051-.043.114-.096.097-.082q.03-.027.063-.053l.306-.25.012-.008q.303-.244.608-.464c.373-.27.744-.516 1.116-.729l.095-.054.013-.007a8 8 0 0 1 .25-.134q.045-.025.091-.047.112-.057.222-.108l.101-.047q.028-.011.056-.024a7 7 0 0 1 .386-.158h.004l.075-.028h.003l.049-.017h.004l.099-.033q.004 0 .009-.004l.069-.023.086-.027q.024-.009.046-.014.018-.004.032-.009.023-.007.047-.013l.03-.007q.023-.007.048-.013.005 0 .01-.002.082-.022.164-.041l.013-.004.044-.01q.018-.003.034-.007l.047-.009q.215-.046.43-.07.035-.006.07-.008l.039-.004.041-.004h.013l.114-.009h.007q.02 0 .041-.002.36-.021.722.015c2.406.287 3.654 2.012 3.654 5.19 0 4.486-2.786 7.743-7.279 7.743z"/></svg>
